X: 138027
T: The UNFORTUNATE RAKE
Q: "Irish Jig."
R: Jig.
%R: jig
B: James Kerr "Merry Melodies" v.1 p.38 s.0 #27
Z: 2016 John Chambers <jc:trillian.mit.edu>
M: 6/8
L: 1/8
K: Em
|:\
EBB BAG | FEF AGF | EBB BAG | FAF E3 |\
EBB BAG | FEF AGF | EBB BAG | FAF E3 :|
|:\
Bee efg | fdB AGF | Eee efg | fdf e3 |\
Bee efg | fdB AGF | EBB GBd | AGF E3 :|

%%sep 1 1 500
%%sep 1 1 500

